X:1
T:No Tears in Heaven
T:No Tears in Heaven
T:William Howard Doane
T:Frances Jane (Fanny) Crosby, 1868
T:Public Domain Courtesy of the Cyber Hymnal™
C:William Howard Doane
Z:Public Domain
Z:Courtesy of the Cyber Hymnal™
%%score ( 1 2 ) ( 3 4 )
L:1/8
Q:1/4=112
M:4/4
K:C
V:1 treble 
V:2 treble 
V:3 bass 
V:4 bass 
V:1
 ([CE][DF]) | [EG]2 [EG]2 [FG]2 [EG]2 | [FA]2 [Fc]2 !fermata![Fc]2 (BA) | G2 [FG]2 [EG]2 [CE]2 | %4
w: 1.~Our *|youth is tran- sient|like a flower, That *|blooms, and fades, and|
w: 2.~The *|an- gel mes- sen-|ger of death, Has *|gent- ly borne a-|
w: 3.~When *|ga- thered on the|Sab- bath morn, Her *|va- cant place we|
 [B,D]6 ([CE][DF]) | [EG]2 [EG]2 [FG]2 [EG]2 | [FA]2 [Fc]2 !fermata![Fc]2 (BA) | %7
w: dies; Our *|life is but a|sum- mer cloud, And *|
w: way, A *|dear com- pan- ion|from our side, To *|
w: view, We’ll *|think how bright the|world she treads, And *|
 G2 [Ec]2 [CE]2 [B,D]2 | [CE]6 [EG]2 | [DG]>[EG] [FG]>[EG] [FG]2 [DF]2 | ([CE]2 [EG]4) [EG]2 | %11
w: like a sha- dow|flies; Then|let us heed the warn- ing|voice— * To-|
w: realms of end- less|day; Her|voice no more will join with|ours * The|
w: in her steps pur-|sue; Be|still, let ev- ery heart be|still, * And|
 [FA]2 [Fc]2 [Fc]3 [FA] | [EG]6 [EG]2 | [Ec]3 [EG] [CE]2 [EG]2 | [FA]2 [Fc]2 !fermata![Fc]2 [FA]2 | %15
w: day its call we|hear, It|speaks in deep and|sol- emn tones, That|
w: song of praise be-|low, It|wakes a pur- er,|sweet- er strain, Where|
w: all our sor- row|quell, We’ll|bow sub- mis- sive|to His will, Who|
 G3 [B,F] [CE]2 [B,D]2 | [CE]4 z2 |] %17
w: come from yon- der|bier.|
w: on- ly plea- sures|flow.|
w: do- eth all things|well.|
V:2
 x2 | x8 | x6 F2 | G2 x6 | x8 | x8 | x6 F2 | G2 x6 | x8 | x8 | x8 | x8 | x8 | x8 | x8 | G3 x5 | %16
 x6 |] %17
V:3
 [C,C]2 | [C,C]2 [C,C]2 [B,,D]2 [C,C]2 | [F,C]2 [F,A,]2 !fermata![F,A,]2 [F,C]2 | %3
 [E,C]2 [D,B,]2 [C,C]2 [E,G,]2 | G,6 [C,C]2 | [C,C]2 [C,C]2 [B,,D]2 [C,C]2 | %6
 ([F,C]2 [F,A,]2) !fermata![F,A,]2 [F,C]2 | [E,C]2 [C,G,]2 G,2 (G,F,) | [C,E,]6 [C,C]2 | %9
 [G,,B,]>[G,,C] [G,,D]>[G,,C] [G,,D]2 (B,G,) | (G,2 C4) [C,C]2 | [F,C]2 [F,A,]2 [F,A,]3 [F,C] | %12
 [C,C]6 [B,,C]2 | [C,G,]3 [C,C] [C,G,]2 [C,C]2 | [F,C]2 [F,A,]2 !fermata![F,A,]2 [F,C]2 | %15
 [E,C]3 [D,G,] [C,G,]2 [G,,G,]2 | [C,G,]4 z2 |] %17
V:4
 x2 | x8 | x8 | x8 | G,6 x2 | x8 | x8 | x4 G,2 G,,2 | x8 | x6 G,,2 | C,6 x2 | x8 | x8 | x8 | x8 | %15
 x8 | x6 |] %17

